static/images/xnav-logo-border.svg

<svg height="1024" viewBox="0 0 1024 1024" width="1024" xmlns="http://www.w3.org/2000/svg"><g fill="none" fill-rule="evenodd"><rect fill="#0a0a0a" height="974" rx="487" stroke="#282828" stroke-width="50" width="974" x="25" y="25"/><path d="m383.04059 558.463356v140.549502c0 12.405509-10.0369 23.038803-23.02583 23.038803-12.274539 0-22.23445-10.421691-22.432421-22.667178l-.003003-.371625v-140.549502c0-12.553778 10.176848-22.730627 22.730627-22.730627s22.730627 10.176849 22.730627 22.730627zm-15.940959-254.654573c10.300312 0 16.718199 4.994502 23.016627 12.832029l.599609.754957 250.078422 319.103216c.160907.205319.457791.241322.66311.080416.114243-.089532.180977-.226618.180977-.371763v-77.744282c0-12.553778 10.176849-22.730627 22.730628-22.730627s22.730627 10.176849 22.730627 22.730627v140.549502c0 12.281454-8.679852 21.667994-20.883725 21.857325h-.370888-2.361623c-9.880074 0-16.899648-5.724221-23.874528-13.791796l-.332114-.385928-255.391687-326.779358c-.160633-.205533-.457469-.241932-.663002-.081299-.114536.089515-.181474.226784-.181474.372151v87.42943c0 12.553779-10.176848 22.730627-22.730627 22.730627s-22.730627-10.176848-22.730627-22.730627v-140.785797c0-12.281454 10.415823-22.82596 22.654415-23.038803h.371415zm297.564576-1.181477c12.274538 0 22.23445 10.421691 22.432421 22.667178l.003003.371625v141.967274c0 12.553779-10.176848 22.730627-22.730627 22.730627s-22.730628-10.176848-22.730628-22.730627v-141.967274c0-12.281454 9.837166-22.82596 22.637055-23.035622z" fill="#fff" fill-rule="nonzero"/></g></svg>

<?xml version="1.0" encoding="UTF-8"?>
<svg width="1024px" height="1024px" viewBox="0 0 1024 1024" version="1.1" xmlns="http://www.w3.org/2000/svg" xmlns:xlink="http://www.w3.org/1999/xlink">
    <!-- Generator: Sketch 63.1 (92452) - https://sketch.com -->
    <title>xN</title>
    <desc>Created with Sketch.</desc>
    <g id="Final" stroke="none" stroke-width="1" fill="none" fill-rule="evenodd">
        <g id="Logos-|-Selected-|-Bordered" transform="translate(-1424.000000, -200.000000)">
            <g id="xN" transform="translate(1424.000000, 200.000000)">
                <rect id="Background" stroke="#282828" stroke-width="50" fill="#0A0A0A" x="25" y="25" width="974" height="974" rx="487"></rect>
                <path d="M383.04059,558.463356 L383.04059,699.012858 L383.04059,699.012858 C383.04059,711.418367 373.00369,722.051661 360.01476,722.051661 C347.740221,722.051661 337.78031,711.62997 337.582339,699.384483 L337.579336,699.012858 L337.579336,558.463356 C337.579336,545.909578 347.756184,535.732729 360.309963,535.732729 C372.863742,535.732729 383.04059,545.909578 383.04059,558.463356 Z M367.099631,303.808783 C377.399943,303.808783 383.81783,308.803285 390.116258,316.640812 L390.715867,317.395769 L640.794289,636.498985 C640.955196,636.704304 641.25208,636.740307 641.457399,636.579401 C641.571642,636.489869 641.638376,636.352783 641.638376,636.207638 L641.638376,558.463356 C641.638376,545.909578 651.815225,535.732729 664.369004,535.732729 C676.922783,535.732729 687.099631,545.909578 687.099631,558.463356 L687.099631,699.012858 L687.099631,699.012858 C687.099631,711.294312 678.419779,720.680852 666.215906,720.870183 L665.845018,720.870183 L663.483395,720.870183 C653.603321,720.870183 646.583747,715.145962 639.608867,707.078387 L639.276753,706.692459 L383.885066,379.913101 C383.724433,379.707568 383.427597,379.671169 383.222064,379.831802 C383.107528,379.921317 383.04059,380.058586 383.04059,380.203953 L383.04059,467.633383 C383.04059,480.187162 372.863742,490.36401 360.309963,490.36401 C347.756184,490.36401 337.579336,480.187162 337.579336,467.633383 L337.579336,326.847586 L337.579336,326.847586 C337.579336,314.566132 347.995159,304.021626 360.233751,303.808783 L360.605166,303.808783 L367.099631,303.808783 Z M664.664207,302.627306 C676.938745,302.627306 686.898657,313.048997 687.096628,325.294484 L687.099631,325.666109 L687.099631,467.633383 C687.099631,480.187162 676.922783,490.36401 664.369004,490.36401 C651.815225,490.36401 641.638376,480.187162 641.638376,467.633383 L641.638376,325.666109 L641.638376,325.666109 C641.638376,313.384655 651.475542,302.840149 664.275431,302.630487 L664.664207,302.627306 Z" id="Shape" fill="#FFFFFF" fill-rule="nonzero"></path>
            </g>
        </g>
    </g>
</svg>
